icons/svgs/mars-solid.svg

<svg width="24" height="24" viewBox="0 0 24 24" fill="none" xmlns="http://www.w3.org/2000/svg">
<path d="M14.5391 3.83594C14.6953 3.48438 15.0469 3.25 15.4375 3.25H19.8125C20.3203 3.25 20.75 3.67969 20.75 4.1875V8.5625C20.75 8.95312 20.5156 9.30469 20.1641 9.46094C19.8125 9.57812 19.3828 9.5 19.1484 9.22656L17.8203 7.9375L15.7891 10.0078C16.5312 11.1016 17 12.4297 17 13.875C17 17.7031 13.9141 20.75 10.125 20.75C6.29688 20.75 3.25 17.7031 3.25 13.875C3.25 10.0859 6.29688 7 10.125 7C11.5703 7 12.8984 7.46875 13.9922 8.21094L16.0625 6.17969L14.7734 4.85156C14.5 4.61719 14.4219 4.1875 14.5391 3.83594ZM10.125 18.25C11.6875 18.25 13.0938 17.4297 13.875 16.0625C14.6953 14.7344 14.6953 13.0547 13.875 11.6875C13.0938 10.3594 11.6875 9.5 10.125 9.5C8.52344 9.5 7.11719 10.3594 6.33594 11.6875C5.51562 13.0547 5.51562 14.7344 6.33594 16.0625C7.11719 17.4297 8.52344 18.25 10.125 18.25Z" fill="black"/>
</svg>

<svg xmlns="http://www.w3.org/2000/svg" width="24" height="24" fill="currentColor" class="icon-mars-solid" viewBox="0 0 24 24">
  <mask id="a" width="18" height="18" x="3" y="3" maskUnits="userSpaceOnUse" style="mask-type:alpha">
    <path d="M14.54 3.836a.99.99 0 0 1 .898-.586h4.374a.95.95 0 0 1 .938.938v4.375c0 .39-.234.742-.586.898-.352.117-.781.039-1.016-.234l-1.328-1.29-2.03 2.07A6.9 6.9 0 0 1 17 13.876a6.86 6.86 0 0 1-6.875 6.875 6.836 6.836 0 0 1-6.875-6.875A6.86 6.86 0 0 1 10.125 7a6.9 6.9 0 0 1 3.867 1.21l2.07-2.03-1.289-1.328c-.273-.235-.351-.665-.234-1.016M10.124 18.25c1.563 0 2.969-.82 3.75-2.187.82-1.329.82-3.008 0-4.375-.781-1.329-2.187-2.188-3.75-2.188-1.602 0-3.008.86-3.79 2.188-.82 1.367-.82 3.046 0 4.374.782 1.368 2.188 2.188 3.79 2.188"/>
  </mask>
  <g mask="url(#a)">
    <path d="M0 0h24v24H0z"/>
  </g>
</svg>
